!!!OTL: BRUEDER NUETZT DAS FREIE LEBEN
!!!ARE: Europa, Mitteleuropa, Deutschland
!!!SCT: F0541
!!!YEM: Copyright 1995, estate of Helmut Schaffrath.
**kern
*ICvox
*Ivox
*M3/2
*k[b-e-]
*B-:
{4b-
4f
=1
2g
2a
8b-
8cc
8dd
8b-
=2
2f
2d}
{4f
4b-
=3
2g
2ee-
8dd
8cc
8b-
8a
=4
2b-
2r}
{4b-
4f
=5
2g
2a
8b-
8cc
8dd
8b-
=6
2f
2d}
{4f
4b-
=7
2g
2ee-
8dd
8cc
8b-
8a
=8
2b-
2r}
{4a
4b-
=9
2cc
2ff
4cc
4a
=10
8b-
8cc
8dd
8ee-
4ff
4r}
{4gg
4gg
=11
2.ff
4dd
8ff
8ee-
8dd
8cc
=12
2cc
4b-
4r}
==
!!!AGN: Studenten -, Trink - Lied
!!!ONB: ESAC (Essen Associative Code) Database: FINK
!!!AMT: simple triple
!!!AIN: vox
!!!EED: Helmut Schaffrath
!!!EEV: 1.0
*-
